X: 16127
T: Green Groves Of Erin, The
R: reel
M: 4/4
K: Adorian
A2BA eABA|G2Bd gedB|A2BA eABA|AGEF GAB2:|
ea~a2 ea~a2|eg~g2 eg~g2|ea~a2 eaag|edef ged2|
ea~a2 bgag|gede ~g3e|dega bgag|egfa gedB||

